assets/ai/ai-doi-square.svg

<svg xmlns="http://www.w3.org/2000/svg" width="100%" height="100%" viewBox="-75.52 -43.52 599.04 599.04"><path d="M 48 32 C 21.5 32 0 53.5 0 80 L 0 432 C 0 458.5 21.5 480 48 480 L 400 480 C 426.5 480 448 458.5 448 432 L 448 80 C 448 53.5 426.5 32 400 32 L 48 32 z M 224 96 C 312.36522 96 384 167.63482 384 256 C 384 344.36519 312.36522 416 224 416 C 135.63483 416 64 344.36519 64 256 C 64 167.63482 135.63483 96 224 96 z M 156.41406 156.93359 L 156.41406 220.48242 C 153.02052 216.96092 147.2893 213.34456 144.08789 211.80859 C 138.51851 209.12087 130.70047 208.55273 124.36328 208.55273 C 113.47937 208.55273 103.2244 214.34332 94.837891 221.57812 C 84.274087 230.66864 78.992188 242.83291 78.992188 258.07031 C 78.992188 273.05177 83.834712 286.94854 94.142578 296.03906 C 102.78503 303.6563 112.64466 307.1582 123.7207 307.1582 C 130.57159 307.1582 137.87276 305.19762 143.25 302.18945 C 146.32197 300.46169 153.40284 296.61143 156.41211 292.83398 L 156.41211 304.89648 L 186.04883 304.89648 L 186.04883 156.93359 L 156.41406 156.93359 z M 325.07031 157.54492 C 320.14112 157.54492 315.94758 159.27313 312.49023 162.73047 C 309.09707 166.12401 307.39839 170.28567 307.40039 175.21484 C 307.40039 180.144 309.09707 184.3376 312.49023 187.79492 C 315.94614 191.25227 320.13968 192.98047 325.07031 192.98047 C 330.06363 192.98047 334.25719 191.28382 337.65039 187.89062 C 341.10773 184.43328 342.83398 180.20816 342.83398 175.21484 C 342.83398 170.28529 341.10773 166.12366 337.65039 162.73047 C 334.19304 159.27313 329.99948 157.54492 325.07031 157.54492 z M 247.04688 207.26953 C 228.73749 207.26953 214.61977 212.97785 204.69727 224.39258 C 196.50252 233.84845 192.4043 244.68885 192.4043 256.91406 C 192.4043 270.49006 196.47209 281.9365 204.60156 291.25781 C 214.46282 302.60438 228.29038 308.2793 246.08789 308.2793 C 263.82065 308.2793 277.61793 302.60561 287.47656 291.25977 C 295.60647 281.93869 299.67387 270.76012 299.67188 257.72461 C 299.67188 244.8231 295.57561 233.71392 287.38086 224.39258 C 277.32855 212.97676 263.88408 207.26953 247.04688 207.26953 z M 309.32031 210.73633 L 309.32031 304.82227 L 340.81836 304.82227 L 340.81836 210.73633 L 309.32031 210.73633 z M 133.41406 234.39062 C 139.04724 234.39063 146.2632 237.91213 150.23242 241.88281 C 154.20163 245.78824 155.74805 252.53285 155.74805 258.16602 C 155.74805 263.86337 152.44578 270.42076 148.47656 274.32617 C 144.5726 278.23158 137.79646 280.62305 132.09766 280.62305 C 125.75901 280.62305 121.48289 277.37802 117.51367 272.64062 C 114.24846 268.79936 112.39648 263.31589 112.39648 258.38672 C 112.39648 253.45609 114.02971 247.53461 117.29492 243.69336 C 121.3283 238.95596 127.13921 234.39258 133.41406 234.39258 L 133.41406 234.39062 z M 246.08789 235.93945 C 251.84904 235.93945 256.74735 238.07148 260.7793 242.32617 C 264.87646 246.51414 266.92578 251.6459 266.92578 257.72461 C 266.92578 263.87149 264.90983 269.06807 260.875 273.32422 C 256.84197 277.51217 251.91466 279.60938 246.08789 279.60938 C 239.55856 279.60938 234.24366 277.04153 230.14648 271.9082 C 226.81856 267.78804 225.15234 263.06066 225.15234 257.72461 C 225.15234 252.45637 226.81856 247.76081 230.14648 243.64062 C 234.24403 238.5073 239.55856 235.93945 246.08789 235.93945 z"/></svg>

<svg xmlns="http://www.w3.org/2000/svg" width="100%" height="100%" viewBox="-75.52 -43.52 599.04 599.04"><path d="M48 32C21.5 32 0 53.5 0 80v352c0 26.5 21.5 48 48 48h352c26.5 0 48-21.5 48-48V80c0-26.5-21.5-48-48-48H48zm176 64c88.365 0 160 71.635 160 160s-71.635 160-160 160S64 344.365 64 256 135.635 96 224 96zm-67.586 60.934v63.548c-3.393-3.521-9.125-7.137-12.326-8.673-5.57-2.688-13.388-3.256-19.725-3.256-10.884 0-21.139 5.79-29.525 13.025-10.564 9.09-15.846 21.255-15.846 36.492 0 14.982 4.843 28.879 15.15 37.97 8.643 7.616 18.503 11.118 29.579 11.118 6.85 0 14.152-1.96 19.529-4.969 3.072-1.727 10.153-5.578 13.162-9.355v12.062h29.637V156.934h-29.635zm168.656.61c-4.929 0-9.122 1.73-12.58 5.186-3.393 3.394-5.092 7.556-5.09 12.485 0 4.929 1.697 9.123 5.09 12.58 3.456 3.457 7.65 5.185 12.58 5.185 4.994 0 9.187-1.696 12.58-5.09 3.458-3.457 5.184-7.682 5.184-12.675 0-4.93-1.726-9.091-5.184-12.485-3.457-3.457-7.65-5.185-12.58-5.185zm-78.023 49.726c-18.31 0-32.427 5.708-42.35 17.123-8.194 9.455-12.293 20.296-12.293 32.521 0 13.576 4.068 25.023 12.198 34.344 9.86 11.346 23.688 17.021 41.486 17.021 17.733 0 31.53-5.673 41.389-17.02 8.13-9.32 12.197-20.499 12.195-33.534 0-12.902-4.096-24.011-12.291-33.332-10.052-11.416-23.497-17.123-40.334-17.123zm62.273 3.466v94.086h31.498v-94.086H309.32zm-175.906 23.655c5.633 0 12.85 3.521 16.818 7.492 3.97 3.905 5.516 10.65 5.516 16.283 0 5.697-3.302 12.255-7.271 16.16-3.904 3.906-10.68 6.297-16.38 6.297-6.338 0-10.614-3.245-14.583-7.982-3.266-3.842-5.118-9.325-5.118-14.254 0-4.93 1.634-10.852 4.899-14.694 4.033-4.737 9.844-9.3 16.12-9.3v-.002zm112.674 1.548c5.761 0 10.66 2.132 14.691 6.387 4.097 4.188 6.147 9.32 6.147 15.399 0 6.146-2.016 11.343-6.051 15.6-4.033 4.187-8.96 6.284-14.787 6.284-6.53 0-11.844-2.567-15.942-7.7-3.327-4.121-4.994-8.848-4.994-14.184 0-5.269 1.667-9.964 4.994-14.084 4.098-5.134 9.413-7.702 15.942-7.702z"/></svg>
